lib/functional/system&devices/command.svg

<svg xmlns="http://www.w3.org/2000/svg" fill="none" stroke="currentColor" aria-hidden="true" viewBox="0 0 32 32"><g id="Icon-Command"><g clip-path="url(#clip0_9_1096)"><g id="size=md (32px)"><g id="Command"><path id="Vector" stroke-linecap="round" stroke-linejoin="round" stroke-width="2" d="M22.5 6C23.4283 6 24.3185 6.36875 24.9749 7.02513C25.6313 7.6815 26 8.57174 26 9.5C26 10.4283 25.6313 11.3185 24.9749 11.9749C24.3185 12.6313 23.4283 13 22.5 13H19V9.5C19 8.57174 19.3687 7.6815 20.0251 7.02513C20.6815 6.36875 21.5717 6 22.5 6V6Z"/><path id="Vector_2" stroke-linecap="round" stroke-linejoin="round" stroke-width="2" d="M13 13H9.5C8.57174 13 7.6815 12.6313 7.02513 11.9749C6.36875 11.3185 6 10.4283 6 9.5C6 8.57174 6.36875 7.6815 7.02513 7.02513C7.6815 6.36875 8.57174 6 9.5 6C10.4283 6 11.3185 6.36875 11.9749 7.02513C12.6313 7.6815 13 8.57174 13 9.5V13Z"/><path id="Vector_3" stroke-linecap="round" stroke-linejoin="round" stroke-width="2" d="M19 19H22.5C23.4283 19 24.3185 19.3687 24.9749 20.0251C25.6313 20.6815 26 21.5717 26 22.5C26 23.4283 25.6313 24.3185 24.9749 24.9749C24.3185 25.6313 23.4283 26 22.5 26C21.5717 26 20.6815 25.6313 20.0251 24.9749C19.3687 24.3185 19 23.4283 19 22.5V19Z"/><path id="Vector_4" stroke-linecap="round" stroke-linejoin="round" stroke-width="2" d="M9.5 26C8.57174 26 7.6815 25.6313 7.02513 24.9749C6.36875 24.3185 6 23.4283 6 22.5C6 21.5717 6.36875 20.6815 7.02513 20.0251C7.6815 19.3687 8.57174 19 9.5 19H13V22.5C13 23.4283 12.6313 24.3185 11.9749 24.9749C11.3185 25.6313 10.4283 26 9.5 26V26Z"/><path id="Vector_5" stroke-linecap="round" stroke-linejoin="round" stroke-width="2" d="M19 13H13V19H19V13Z"/></g></g></g></g><defs><clipPath id="clip0_9_1096"><rect width="32" height="32" fill="white" rx="5"/></clipPath></defs></svg>

<svg xmlns="http://www.w3.org/2000/svg" fill="none" stroke="currentColor" aria-hidden="true" viewBox="0 0 32 32"><g stroke="#101828" stroke-linecap="round" stroke-linejoin="round" stroke-width="2" clip-path="url(#a)"><path d="M22.5 6a3.5 3.5 0 1 1 0 7H19V9.5A3.5 3.5 0 0 1 22.5 6v0ZM13 13H9.5A3.5 3.5 0 1 1 13 9.5V13Zm6 6h3.5a3.5 3.5 0 1 1-3.5 3.5V19Zm-9.5 7a3.5 3.5 0 1 1 0-7H13v3.5A3.5 3.5 0 0 1 9.5 26v0ZM19 13h-6v6h6v-6Z"/></g><defs><clipPath id="a"><rect width="32" height="32" fill="#fff" rx="5"/></clipPath></defs></svg>
